X:122
T:Strand Hornpipe, The
T:Lass on the Strand, The
R:hornpipe
Z:id:hn-hornpipe-122
M:C|
L:1/8
K:G
ga | bgdB GBdg | fecA E2FE | DdcA FDEF | GABc d2ga |
bgdB GBdg | fecA E2FE | DdcA FDEF | G2B2 G2 :|
|: AG | FGAB cDEF | GABc d2AG | FGAB cDEF | GABc d2ga |
bgdB GBdg | fecA E2FE | DdcA FDEF | G2B2 G2 :|

